X:1
T:CAAMP
M:4/4
L:1/8
Q:1/4=92
K:D
F2 A2 A2 B2 | d4 z4 | d2 d2 B2 A2 | F4 E2 D2 |
F2 A2 A2 B2 | d4 e2 d2 | B2 A2 F2 E2 | D4 z4 |
A2 B2 d2 e2 | f4 e2 d2 | B2 d2 A2 B2 | A4 z4 |
F2 A2 B2 A2 | F2 E2 D2 F2 | A2 B2 A2 F2 | D6 z2 |
